src/bma.client/images/search/selected/Motif_Sort_Hover-01.svg

<?xml version="1.0" encoding="utf-8"?>
<!-- Generator: Adobe Illustrator 23.0.1, SVG Export Plug-In . SVG Version: 6.00 Build 0)  -->
<svg version="1.1" id="Layer_1" xmlns="http://www.w3.org/2000/svg" xmlns:xlink="http://www.w3.org/1999/xlink" x="0px" y="0px"
	 viewBox="0 0 20.88 16.8" style="enable-background:new 0 0 20.88 16.8;" xml:space="preserve">
<style type="text/css">
	.st0{fill:#666666;}
</style>
<g>
	<g>
		<path class="st0" d="M8.23,9.01l2.85,1.64v3.29l-2.85,1.64l-2.85-1.64v-3.29L8.23,9.01 M8.23,7.8l-3.9,2.25v4.5l3.9,2.25l3.9-2.25
			v-4.5L8.23,7.8L8.23,7.8z"/>
	</g>
	<g>
		<path class="st0" d="M16.98,9.01l2.85,1.64v3.29l-2.85,1.64l-2.85-1.64v-3.29L16.98,9.01 M16.98,7.8l-3.9,2.25v4.5l3.9,2.25
			l3.9-2.25v-4.5L16.98,7.8L16.98,7.8z"/>
	</g>
	<g>
		<path class="st0" d="M12.66,1.32l2.85,1.64v3.29L12.66,7.9L9.81,6.25V2.97L12.66,1.32 M12.66,0.11l-3.9,2.25v4.5l3.9,2.25
			l3.9-2.25v-4.5L12.66,0.11L12.66,0.11z"/>
	</g>
	<g>
		<path class="st0" d="M3.9,1.32l2.85,1.64v3.29L3.9,7.9L1.05,6.25V2.97L3.9,1.32 M3.9,0.11L0,2.36v4.5l3.9,2.25l3.9-2.25v-4.5
			L3.9,0.11L3.9,0.11z"/>
	</g>
</g>
<g>
	<g>
		<path class="st0" d="M8.23,8.9l2.85,1.64v3.29l-2.85,1.64l-2.85-1.64v-3.29L8.23,8.9 M8.23,7.69l-3.9,2.25v4.5l3.9,2.25l3.9-2.25
			v-4.5L8.23,7.69L8.23,7.69z"/>
	</g>
	<g>
		<path class="st0" d="M16.98,8.9l2.85,1.64v3.29l-2.85,1.64l-2.85-1.64v-3.29L16.98,8.9 M16.98,7.69l-3.9,2.25v4.5l3.9,2.25
			l3.9-2.25v-4.5L16.98,7.69L16.98,7.69z"/>
	</g>
	<g>
		<path class="st0" d="M12.66,1.21l2.85,1.64v3.29l-2.85,1.64L9.81,6.14V2.86L12.66,1.21 M12.66,0l-3.9,2.25v4.5L12.66,9l3.9-2.25
			v-4.5L12.66,0L12.66,0z"/>
	</g>
	<g>
		<path class="st0" d="M3.9,1.21l2.85,1.64v3.29L3.9,7.79L1.05,6.14V2.86L3.9,1.21 M3.9,0L0,2.25v4.5L3.9,9l3.9-2.25v-4.5L3.9,0
			L3.9,0z"/>
	</g>
</g>
</svg>

<svg id="Layer_1" data-name="Layer 1" xmlns="http://www.w3.org/2000/svg" viewBox="0 0 20.88 16.8"><defs><style>.cls-1{fill:#545454;}</style></defs><path class="cls-1" d="M8.23,8.9l2.85,1.64v3.29L8.23,15.47,5.38,13.83V10.54L8.23,8.9m0-1.21L4.33,9.94v4.5l3.9,2.25,3.9-2.25V9.94L8.23,7.69Z"/><path class="cls-1" d="M17,8.9l2.85,1.64v3.29L17,15.47l-2.85-1.64V10.54L17,8.9m0-1.21-3.9,2.25v4.5L17,16.69l3.9-2.25V9.94L17,7.69Z"/><path class="cls-1" d="M12.66,1.21l2.85,1.65V6.14L12.66,7.79,9.81,6.14V2.86l2.85-1.65m0-1.21L8.76,2.25v4.5L12.66,9l3.9-2.25V2.25L12.66,0Z"/><path class="cls-1" d="M3.9,1.21,6.74,2.86V6.14L3.9,7.79,1.05,6.14V2.86L3.9,1.21M3.9,0,0,2.25v4.5L3.9,9,7.79,6.75V2.25L3.9,0Z"/></svg>
